svgs/sharp-regular/flask.svg

<svg xmlns="http://www.w3.org/2000/svg" viewBox="0 0 448 512"><!--! Font Awesome Pro 6.6.0 by @fontawesome - https://fontawesome.com License - https://fontawesome.com/license (Commercial License) Copyright 2024 Fonticons, Inc. --><path d="M272 214.9L272 48l-96 0 0 166.9 0 13.6-7.1 11.6L119.7 320l208.6 0-49.2-79.9L272 228.5l0-13.6zM320 48l0 166.9 128 208 0 41.1 0 48-48 0L48 512 0 512l0-48 0-41.1 128-208L128 48l-8 0L96 48 96 0l24 0 8 0 48 0 96 0 48 0 8 0 24 0 0 48-24 0-8 0z"/></svg>

<svg xmlns="http://www.w3.org/2000/svg" viewBox="0 0 448 512"><!--! Font Awesome Pro 6.4.0 by @fontawesome - https://fontawesome.com License - https://fontawesome.com/license (Commercial License) Copyright 2023 Fonticons, Inc. --><path d="M272 214.9V48H176V214.9v13.6l-7.1 11.6L119.7 320H328.3l-49.2-79.9L272 228.5V214.9zM320 48V214.9l128 208V464v48H400 48 0V464 422.9l128-208V48h-8H96V0h24 8 48 96 48 8 24V48H328h-8z"/></svg>
